!!!COA: Josquin des Prez
!!!CDT: ~1450-1521/08/27
!!!OTL@@FRA: Baisez moy
!!!AGN: Chanson
!!!SCT: NJE 28.4
!!!SCA: New Josquin Edition 28.4
!!!voices: 4
**kern	**kern	**kern	**kern
*staff4	*staff3	*staff2	*staff1
*Ivox	*Ivox	*Ivox	*Ivox
*I"Bassus	*I"Tenor	*I"Altus	*I"Superius
*I'B	*I'T	*I'A	*I'S
*clefF4	*clefGv2	*clefGv2	*clefG2
*k[]	*k[]	*k[]	*k[]
*M2/1	*M2/1	*M2/1	*M2/1
*met(C|)	*met(C|)	*met(C|)	*met(C|)
=1-	=1-	=1-	=1-
!	!	!	!LO:TX:Z=10:t=4-ex-2 canon (B/T &amp; A/S both at the upper fourth)
0D	0r	1r	0r
.	.	[1d	.
=2	=2	=2	=2
0E	0G	2d\]	1r
.	.	4c#i\	.
.	.	4B\	.
.	.	1c#i	[1g
=3	=3	=3	=3
0D	0A	1.d	2g/]
.	.	.	4f#i/
.	.	.	4e/
.	.	.	1f#i
.	.	4c\	.
.	.	4B\	.
=4	=4	=4	=4
1r	0G	2.B\	1.g
.	.	8A/L	.
.	.	8G/J	.
1G	.	2G/	.
.	.	[2g\	4f/
.	.	.	4e/
=5	=5	=5	=5
0A	1r	2g\]	2.e/
.	.	4f#i\	.
.	.	4e\	8d/L
.	.	.	8c/J
.	1c	1f#i	2c/
.	.	.	[2cc\
=6	=6	=6	=6
0G	0d	[0g	2cc\]
.	.	.	4b\
.	.	.	4a/
.	.	.	1b
=7	=7	=7	=7
0r	0c	0g]	[0cc
=8	=8	=8	=8
2c\	0r	0r	0cc]
2c\	.	.	.
2c\	.	.	.
2c\	.	.	.
=9	=9	=9	=9
1A	2f\	0r	0r
.	2f\	.	.
1A	2f\	.	.
.	2f\	.	.
=10	=10	=10	=10
1.B	1d	0r	0r
.	1d	.	.
4A\	.	.	.
4G\	.	.	.
=11	=11	=11	=11
0G	1.e	2g\	0r
.	.	2g\	.
.	.	2g\	.
.	4d\	2g\	.
.	4c\	.	.
=12	=12	=12	=12
2A\	0c	1e	2cc\
2A\	.	.	2cc\
2A\	.	1e	2cc\
2A\	.	.	2cc\
=13	=13	=13	=13
1F	2d\	1.f	1a
.	2d\	.	.
1F	2d\	.	1a
.	2d\	4e\	.
.	.	4d\	.
=14	=14	=14	=14
1.G	1B	1d	1.b
.	1B	[1g	.
4F\	.	.	4a/
4E\	.	.	4g/
=15	=15	=15	=15
2.E\	1.c	2g\]	1g
.	.	2f\	.
4C/	.	.	.
1C	.	[1e	[1cc
.	4B\	.	.
.	4A/	.	.
=16	=16	=16	=16
1r	2.A/	2e\]	2cc\]
.	.	2d\	2b\
.	4F/	.	.
1D	1F	[1d	[1a
=17	=17	=17	=17
0E	1r	1d]	2a/]
.	.	.	2g/
.	1G	1c#i	[1g
=18	=18	=18	=18
0D	0A	1.d	1g]
.	.	.	1f#i
.	.	4c\	.
.	.	4B\	.
=19	=19	=19	=19
1r	0G	2.B\	1.g
.	.	8A/L	.
.	.	8G/J	.
1G	.	2G/	.
.	.	[2g\	4f/
.	.	.	4e/
=20	=20	=20	=20
0A	1r	2g\]	2.e/
.	.	4f#i\	.
.	.	4e\	8d/L
.	.	.	8c/J
.	1c	1f#i	2c/
.	.	.	[2cc\
=21	=21	=21	=21
0G	0d	[0g	2cc\]
.	.	.	4b\
.	.	.	4a/
.	.	.	1b
=22	=22	=22	=22
0r	0c	0g]	[0cc
=23	=23	=23	=23
2c\	0r	0r	0cc]
2c\	.	.	.
2c\	.	.	.
2c\	.	.	.
=24	=24	=24	=24
1A	2f\	0r	0r
.	2f\	.	.
1A	2f\	.	.
.	2f\	.	.
=25	=25	=25	=25
1.B	1d	0r	0r
.	1d	.	.
4A\	.	.	.
4G\	.	.	.
=26	=26	=26	=26
0G	1.e	2g\	0r
.	.	2g\	.
.	.	2g\	.
.	4d\	2g\	.
.	4c\	.	.
=27	=27	=27	=27
2A\	0c	1e	2cc\
2A\	.	.	2cc\
2A\	.	1e	2cc\
2A\	.	.	2cc\
=28	=28	=28	=28
1F	2d\	1.f	1a
.	2d\	.	.
1F	2d\	.	1a
.	2d\	4e\	.
.	.	4d\	.
=29	=29	=29	=29
1.G	1B	1d	1.b
.	1B	1d	.
4F\	.	.	4a/
4E\	.	.	4g/
=30	=30	=30	=30
1E	1.c	1c	1g
1C	.	[1e	1g
.	4B\	.	.
.	4A/	.	.
=31	=31	=31	=31
0D	1A	2e\]	1f
.	.	2d\	.
.	1F	[1d	[1a
=32	=32	=32	=32
0E	0G	1d]	2a/]
.	.	.	2g/
.	.	1c#i	[1g
=33	=33	=33	=33
0D	0A	0d	1g]
.	.	.	1f#i
=34	=34	=34	=34
1r	0G	1r	0g
1C	.	1e	.
=35	=35	=35	=35
0D	1r	2d\	1r
.	.	2.f\	.
.	1F	.	1a
.	.	4e\	.
.	.	[2d\	.
=36	=36	=36	=36
0E	0G	2d\]	2g/
.	.	4c#i\	2.b-i\
.	.	4B\	.
.	.	1c#i	.
.	.	.	4a/
.	.	.	[2g/
=37	=37	=37	=37
0D	0A	[0dl	2g/]
.	.	.	4f#i/
.	.	.	4e/
.	.	.	1f#i
=38	=38	=38	=38
0Gl	0Gl	0d]	0gl
==	==	==	==
*-	*-	*-	*-
!!!RDF**kern: l=long note in original notation
!!!RDF**kern: i=editorial accidental
!!!ENC: Jesse Rodin; Victoria Chang 2011/07/27
!!!END: 2011/07/27/
!!!EED: Jesse Rodin
!!!EEV: 2011/08/09/
!!attribution-level@Jos: 2 (slightly less secure)
!!!ONB: Translated from MusicXML and edited on 2011/08/09/ by Craig Sapp
!!muse2ps:  C^@{COM}{/}@{COA}?\n@{SCT}^v90,100,90,150I150Q16
